original/processed/bing-alt.svg

<?xml version="1.0" encoding="UTF-8" standalone="no"?>
<svg
   xmlns:dc="http://purl.org/dc/elements/1.1/"
   xmlns:cc="http://creativecommons.org/ns#"
   xmlns:rdf="http://www.w3.org/1999/02/22-rdf-syntax-ns#"
   xmlns:svg="http://www.w3.org/2000/svg"
   xmlns="http://www.w3.org/2000/svg"
   style="display: block;"
   height="400"
   width="400"
   version="1.1"
   id="svg">
  <metadata
     id="metadata9">
    <rdf:RDF>
      <cc:Work
         rdf:about="">
        <dc:format>image/svg+xml</dc:format>
        <dc:type
           rdf:resource="http://purl.org/dc/dcmitype/StillImage" />
        <dc:title></dc:title>
      </cc:Work>
    </rdf:RDF>
  </metadata>
  <defs
     id="defs7" />
  <g
     id="svgg">
    <path
       style="fill:#000000;fill-rule:evenodd;stroke:none"
       d="m 71.247,9.826 c -2.058,1.307 -1.311,338.163 0.753,339.235 0.825,0.429 3.525,1.765 6,2.969 2.475,1.204 4.725,2.508 5,2.898 0.275,0.391 2.75,1.778 5.5,3.083 2.75,1.306 5.45,2.891 6,3.523 0.55,0.633 3.475,2.176 6.5,3.429 3.025,1.254 5.86,2.9 6.3,3.658 0.44,0.759 1.691,1.379 2.781,1.379 1.09,0 2.241,0.675 2.557,1.5 0.317,0.825 1.653,1.5 2.969,1.5 1.316,0 2.393,0.448 2.393,0.995 0,0.547 2.065,1.966 4.59,3.152 2.524,1.187 4.822,2.764 5.107,3.505 0.284,0.742 1.132,1.348 1.883,1.348 2.205,0 10.42,4.301 10.42,5.456 5.52959,2.12555 14,-0.436 14,-0.436 0,-0.511 1.679,-1.244 3.732,-1.629 2.056,-0.386 5.009,-1.978 6.577,-3.546 1.564,-1.565 3.71,-2.845 4.768,-2.845 1.058,0 1.923,-0.395 1.923,-0.879 0,-0.483 1.35,-1.438 3,-2.121 1.65,-0.683 3,-1.543 3,-1.911 0,-0.367 2.475,-1.757 5.5,-3.089 3.025,-1.332 5.5,-2.801 5.5,-3.266 0,-0.464 2.429,-1.918 5.397,-3.231 2.969,-1.313 5.556,-2.751 5.75,-3.195 0.194,-0.444 2.603,-1.905 5.353,-3.247 2.75,-1.341 5.595,-3.028 6.321,-3.75 0.727,-0.721 2.367,-1.311 3.643,-1.311 1.277,0 2.581,-0.675 2.898,-1.5 0.316,-0.825 1.164,-1.5 1.884,-1.5 0.72,0 2.072,-0.891 3.004,-1.979 0.932,-1.089 2.347,-1.729 3.145,-1.423 0.798,0.306 2.332,-0.266 3.409,-1.271 3.178,-2.964 6.533,-5.327 7.565,-5.327 0.53,0 4.212,-2.025 8.183,-4.5 3.971,-2.475 7.621,-4.5 8.112,-4.5 0.49,0 1.704,-0.949 2.697,-2.108 1.372,-1.603 2.515,-1.967 4.762,-1.517 2.043,0.408 2.896,0.21 2.759,-0.642 -0.307,-1.919 1.201,-4.733 2.538,-4.733 0.663,0 3.538,-1.125 6.388,-2.5 2.85,-1.375 5.429,-2.5 5.731,-2.5 0.301,0 1.762,-1.125 3.244,-2.5 1.483,-1.375 3.466,-2.5 4.407,-2.5 0.941,0 2.12,-0.731 2.62,-1.625 0.5,-0.894 2.098,-1.625 3.55,-1.625 1.452,0 2.64,-0.361 2.64,-0.802 0,-0.979 5.778,-3.948 7.685,-3.948 0.758,0 1.643,-0.692 1.968,-1.537 0.324,-0.845 1.997,-2.258 3.718,-3.14 1.721,-0.881 3.354,-1.879 3.629,-2.218 0.275,-0.339 3.176,-1.963 6.447,-3.61 3.271,-1.647 6.759,-3.782 7.75,-4.745 0.992,-0.962 2.703,-1.75 3.803,-1.75 1.1,0 2,-0.45 2,-1 0,-0.55 0.675,-1 1.5,-1 0.825,0 1.5,-0.381 1.5,-0.847 0,-0.466 0.942,-1.268 2.093,-1.781 2.08,-0.928 2.093,-1.227 2.068,-45.349 l -0.025,-44.415 -5.318,-1.738 c -2.925,-0.956 -6.073,-1.767 -6.997,-1.804 -0.923,-0.036 -2.273,-0.659 -3,-1.385 -0.726,-0.725 -4.886,-2.287 -9.244,-3.471 -4.358,-1.184 -8.183,-2.542 -8.5,-3.019 -0.582,-0.876 -18.509,-6.21 -20.827,-6.198 -0.687,0.004 -1.25,-0.388 -1.25,-0.872 0,-1.108 -4.353,-2.84 -9.299,-3.701 -2.09,-0.363 -4.347,-1.209 -5.018,-1.879 -0.67,-0.671 -2.335,-1.475 -3.701,-1.788 -5.379,-1.233 -17.51,-5.03 -17.982,-5.629 -0.568,-0.721 -5.278,-2.312 -12.25,-4.139 -2.613,-0.685 -4.75,-1.588 -4.75,-2.007 0,-0.418 -1.237,-1.056 -2.75,-1.416 -6.048,-1.439 -16.782,-4.987 -17.285,-5.713 -0.455,-0.656 -5.274,-2.05 -15.715,-4.545 -1.238,-0.295 -2.25,-0.85 -2.25,-1.231 0,-0.382 -2.7,-1.503 -6,-2.492 -3.3,-0.988 -6,-2.109 -6,-2.491 0,-0.381 -1.674,-0.741 -3.719,-0.799 -2.046,-0.058 -3.883,-0.597 -4.083,-1.198 L 167,135.417 c -0.77749,0.0485 0.338,1.566 0.752,1.75 l 9.618,23.854 c 1.579,4.939 3.201,8.979 3.605,8.979 0.403,0 1.736,3.375 2.96,7.5 1.225,4.125 2.547,7.5 2.939,7.5 0.391,0 2.036,3.938 3.655,8.75 1.619,4.813 3.287,8.9 3.707,9.083 0.42,0.184 0.764,0.92 0.764,1.636 0,0.716 0.672,2.591 1.494,4.167 0.821,1.575 1.496,3.57 1.5,4.434 0.007,1.817 5.186,7.93 6.718,7.93 1.681,0 10.597,4.166 12.071,5.641 0.748,0.747 2.201,1.359 3.229,1.359 1.029,0 2.148,0.45 2.488,1 0.34,0.55 1.604,1.036 2.809,1.079 l 4.887,2.008 c 0.199,0.598 2.824,1.95 5.833,3.004 3.009,1.055 5.971,2.591 6.581,3.414 0.611,0.822 1.961,1.502 3,1.51 l 1.625,2.433 -3.54,2.609 c -0.331,1.267 -1.373,1.943 -2.994,1.943 -1.368,0 -2.758,0.706 -3.089,1.569 L 227.5,255 c -3.025,1.332 -5.5,2.756 -5.5,3.164 0,0.408 -2.018,1.635 -4.483,2.726 -2.466,1.09 -5.954,3.064 -7.75,4.387 -1.797,1.322 -4.842,3.013 -6.767,3.758 -1.925,0.745 -4.228,2.167 -5.117,3.16 -0.89,0.993 -2.352,1.805 -3.25,1.805 -0.898,0 -2.539,0.906 -3.646,2.013 -1.108,1.108 -3.92,2.749 -6.25,3.647 -2.331,0.898 -5.268,2.692 -6.527,3.986 -2.139,2.198 -3.929,2.822 -6.96,2.429 -0.687,-0.09 -1.25,0.321 -1.25,0.913 0,0.591 -0.787,1.375 -1.75,1.743 -0.963,0.367 -2.598,1.456 -3.635,2.419 -1.037,0.963 -3.174,2.034 -4.75,2.38 -1.576,0.346 -2.865,1.043 -2.865,1.549 0,0.507 -0.675,0.921 -1.5,0.921 -0.825,0 -1.5,0.45 -1.5,1 0,0.55 -0.45,1 -1,1 -0.55,0 -1,-0.675 -1,-1.5 0,-2.623 -1.85,-1.613 -2.289,1.25 -0.232,1.512 -0.477,-56.85 -0.545,-129.694 L 149.044,35.611 143.81,34.272 c -2.879,-0.737 -5.476,-1.724 -5.772,-2.194 -0.296,-0.47 -4.251,-1.854 -8.788,-3.076 C 124.713,27.78 121,26.417 121,25.971 121,25.526 119.088,24.715 116.75,24.168 108.836,22.317 100.502,19.624 100.167,18.81 99.983,18.365 98.997,18 97.976,18 96.954,18 95.887,17.627 95.606,17.171 95.324,16.715 92.485,15.729 89.297,14.979 86.108,14.23 83.275,13.306 83,12.926 82.605,12.38 73.592,8.953 72.715,9.015 72.597,9.024 71.936,9.389 71.247,9.826"
       id="path0" />
  </g>
</svg>

<svg id="svg" version="1.1" width="400" height="400" xmlns="http://www.w3.org/2000/svg" xmlns:xlink="http://www.w3.org/1999/xlink" style="display: block;"><g id="svgg"><path id="path0" d="M71.247 9.826 C 69.189 11.133,69.936 347.989,72.000 349.061 C 72.825 349.490,75.525 350.826,78.000 352.030 C 80.475 353.234,82.725 354.538,83.000 354.928 C 83.275 355.319,85.750 356.706,88.500 358.011 C 91.250 359.317,93.950 360.902,94.500 361.534 C 95.050 362.167,97.975 363.710,101.000 364.963 C 104.025 366.217,106.860 367.863,107.300 368.621 C 107.740 369.380,108.991 370.000,110.081 370.000 C 111.171 370.000,112.322 370.675,112.638 371.500 C 112.955 372.325,114.291 373.000,115.607 373.000 C 116.923 373.000,118.000 373.448,118.000 373.995 C 118.000 374.542,120.065 375.961,122.590 377.147 C 125.114 378.334,127.412 379.911,127.697 380.652 C 127.981 381.394,128.829 382.000,129.580 382.000 C 131.785 382.000,140.000 386.301,140.000 387.456 C 140.000 389.714,147.806 391.152,151.025 389.487 C 152.661 388.641,154.000 387.531,154.000 387.020 C 154.000 386.509,155.679 385.776,157.732 385.391 C 159.788 385.005,162.741 383.413,164.309 381.845 C 165.873 380.280,168.019 379.000,169.077 379.000 C 170.135 379.000,171.000 378.605,171.000 378.121 C 171.000 377.638,172.350 376.683,174.000 376.000 C 175.650 375.317,177.000 374.457,177.000 374.089 C 177.000 373.722,179.475 372.332,182.500 371.000 C 185.525 369.668,188.000 368.199,188.000 367.734 C 188.000 367.270,190.429 365.816,193.397 364.503 C 196.366 363.190,198.953 361.752,199.147 361.308 C 199.341 360.864,201.750 359.403,204.500 358.061 C 207.250 356.720,210.095 355.033,210.821 354.311 C 211.548 353.590,213.188 353.000,214.464 353.000 C 215.741 353.000,217.045 352.325,217.362 351.500 C 217.678 350.675,218.526 350.000,219.246 350.000 C 219.966 350.000,221.318 349.109,222.250 348.021 C 223.182 346.932,224.597 346.292,225.395 346.598 C 226.193 346.904,227.727 346.332,228.804 345.327 C 231.982 342.363,235.337 340.000,236.369 340.000 C 236.899 340.000,240.581 337.975,244.552 335.500 C 248.523 333.025,252.173 331.000,252.664 331.000 C 253.154 331.000,254.368 330.051,255.361 328.892 C 256.733 327.289,257.876 326.925,260.123 327.375 C 262.166 327.783,263.019 327.585,262.882 326.733 C 262.575 324.814,264.083 322.000,265.420 322.000 C 266.083 322.000,268.958 320.875,271.808 319.500 C 274.658 318.125,277.237 317.000,277.539 317.000 C 277.840 317.000,279.301 315.875,280.783 314.500 C 282.266 313.125,284.249 312.000,285.190 312.000 C 286.131 312.000,287.310 311.269,287.810 310.375 C 288.310 309.481,289.908 308.750,291.360 308.750 C 292.812 308.750,294.000 308.389,294.000 307.948 C 294.000 306.969,299.778 304.000,301.685 304.000 C 302.443 304.000,303.328 303.308,303.653 302.463 C 303.977 301.618,305.650 300.205,307.371 299.323 C 309.092 298.442,310.725 297.444,311.000 297.105 C 311.275 296.766,314.176 295.142,317.447 293.495 C 320.718 291.848,324.206 289.713,325.197 288.750 C 326.189 287.788,327.900 287.000,329.000 287.000 C 330.100 287.000,331.000 286.550,331.000 286.000 C 331.000 285.450,331.675 285.000,332.500 285.000 C 333.325 285.000,334.000 284.619,334.000 284.153 C 334.000 283.687,334.942 282.885,336.093 282.372 C 338.173 281.444,338.186 281.145,338.161 237.023 L 338.136 192.608 332.818 190.870 C 329.893 189.914,326.745 189.103,325.821 189.066 C 324.898 189.030,323.548 188.407,322.821 187.681 C 322.095 186.956,317.935 185.394,313.577 184.210 C 309.219 183.026,305.394 181.668,305.077 181.191 C 304.495 180.315,286.568 174.981,284.250 174.993 C 283.563 174.997,283.000 174.605,283.000 174.121 C 283.000 173.013,278.647 171.281,273.701 170.420 C 271.611 170.057,269.354 169.211,268.683 168.541 C 268.013 167.870,266.348 167.066,264.982 166.753 C 259.603 165.520,247.472 161.723,247.000 161.124 C 246.432 160.403,241.722 158.812,234.750 156.985 C 232.137 156.300,230.000 155.397,230.000 154.978 C 230.000 154.560,228.763 153.922,227.250 153.562 C 221.202 152.123,210.468 148.575,209.965 147.849 C 209.510 147.193,204.691 145.799,194.250 143.304 C 193.012 143.009,192.000 142.454,192.000 142.073 C 192.000 141.691,189.300 140.570,186.000 139.581 C 182.700 138.593,180.000 137.472,180.000 137.090 C 180.000 136.709,178.326 136.349,176.281 136.291 C 174.235 136.233,172.398 135.694,172.198 135.093 C 171.652 133.457,167.000 133.747,167.000 135.417 C 167.000 136.196,167.338 136.983,167.752 137.167 C 168.995 137.718,172.863 150.474,171.896 150.833 C 170.194 151.467,171.005 153.133,172.750 152.589 C 174.202 152.135,174.989 153.571,177.370 161.021 C 178.949 165.960,180.571 170.000,180.975 170.000 C 181.378 170.000,182.711 173.375,183.935 177.500 C 185.160 181.625,186.482 185.000,186.874 185.000 C 187.265 185.000,188.910 188.938,190.529 193.750 C 192.148 198.563,193.816 202.650,194.236 202.833 C 194.656 203.017,195.000 203.753,195.000 204.469 C 195.000 205.185,195.672 207.060,196.494 208.636 C 197.315 210.211,197.990 212.206,197.994 213.070 C 198.001 214.887,203.180 221.000,204.712 221.000 C 206.393 221.000,215.309 225.166,216.783 226.641 C 217.531 227.388,218.984 228.000,220.012 228.000 C 221.041 228.000,222.160 228.450,222.500 229.000 C 222.840 229.550,224.104 230.036,225.309 230.079 C 226.514 230.122,226.938 230.385,226.250 230.662 C 224.492 231.372,224.688 234.000,226.500 234.000 C 227.325 234.000,228.000 233.325,228.000 232.500 C 228.000 230.775,229.655 230.464,230.196 232.087 C 230.395 232.685,233.020 234.037,236.029 235.091 C 239.038 236.146,242.000 237.682,242.610 238.505 C 243.221 239.327,244.571 240.007,245.610 240.015 C 249.350 240.046,250.478 241.736,247.235 242.448 C 245.431 242.845,243.998 243.901,243.695 245.057 C 243.364 246.324,242.322 247.000,240.701 247.000 C 239.333 247.000,237.943 247.706,237.612 248.569 C 237.212 249.612,236.337 249.924,235.005 249.502 C 233.490 249.021,233.000 249.319,233.000 250.722 C 233.000 252.012,231.322 253.317,227.500 255.000 C 224.475 256.332,222.000 257.756,222.000 258.164 C 222.000 258.572,219.982 259.799,217.517 260.890 C 215.051 261.980,211.563 263.954,209.767 265.277 C 207.970 266.599,204.925 268.290,203.000 269.035 C 201.075 269.780,198.772 271.202,197.883 272.195 C 196.993 273.188,195.531 274.000,194.633 274.000 C 193.735 274.000,192.094 274.906,190.987 276.013 C 189.879 277.121,187.067 278.762,184.737 279.660 C 182.406 280.558,179.469 282.352,178.210 283.646 C 176.071 285.844,174.281 286.468,171.250 286.075 C 170.563 285.985,170.000 286.396,170.000 286.988 C 170.000 287.579,169.213 288.363,168.250 288.731 C 167.287 289.098,165.652 290.187,164.615 291.150 C 163.578 292.113,161.441 293.184,159.865 293.530 C 158.289 293.876,157.000 294.573,157.000 295.079 C 157.000 295.586,156.325 296.000,155.500 296.000 C 154.675 296.000,154.000 296.450,154.000 297.000 C 154.000 297.550,153.550 298.000,153.000 298.000 C 152.450 298.000,152.000 297.325,152.000 296.500 C 152.000 293.877,150.150 294.887,149.711 297.750 C 149.479 299.262,149.234 240.900,149.166 168.056 L 149.044 35.611 143.810 34.272 C 140.931 33.535,138.334 32.548,138.038 32.078 C 137.742 31.608,133.787 30.224,129.250 29.002 C 124.713 27.780,121.000 26.417,121.000 25.971 C 121.000 25.526,119.088 24.715,116.750 24.168 C 108.836 22.317,100.502 19.624,100.167 18.810 C 99.983 18.365,98.997 18.000,97.976 18.000 C 96.954 18.000,95.887 17.627,95.606 17.171 C 95.324 16.715,92.485 15.729,89.297 14.979 C 86.108 14.230,83.275 13.306,83.000 12.926 C 82.605 12.380,73.592 8.953,72.715 9.015 C 72.597 9.024,71.936 9.389,71.247 9.826 M173.000 160.500 C 173.000 161.325,173.675 162.000,174.500 162.000 C 175.325 162.000,176.000 161.325,176.000 160.500 C 176.000 159.675,175.325 159.000,174.500 159.000 C 173.675 159.000,173.000 159.675,173.000 160.500 M216.000 257.500 C 216.000 258.325,216.450 259.000,217.000 259.000 C 217.550 259.000,218.000 258.325,218.000 257.500 C 218.000 256.675,217.550 256.000,217.000 256.000 C 216.450 256.000,216.000 256.675,216.000 257.500 M328.000 290.000 C 328.000 291.333,327.333 292.000,326.000 292.000 C 324.900 292.000,324.000 292.450,324.000 293.000 C 324.000 294.133,325.473 294.248,328.750 293.370 C 331.367 292.668,332.019 288.000,329.500 288.000 C 328.667 288.000,328.000 288.889,328.000 290.000 M243.000 339.000 C 243.000 339.550,243.675 340.000,244.500 340.000 C 245.325 340.000,246.000 339.550,246.000 339.000 C 246.000 338.450,245.325 338.000,244.500 338.000 C 243.675 338.000,243.000 338.450,243.000 339.000 M215.000 355.500 C 215.000 356.325,215.450 357.000,216.000 357.000 C 216.550 357.000,217.000 356.325,217.000 355.500 C 217.000 354.675,216.550 354.000,216.000 354.000 C 215.450 354.000,215.000 354.675,215.000 355.500 " stroke="none" fill="#000000" fill-rule="evenodd"></path></g></svg>
